public/img/logo-profile.svg

<svg width="1000" height="1000" fill="none" xmlns="http://www.w3.org/2000/svg"><path d="M1000 0H0v1000h1000V0z" fill="#1E0B36"/><path d="M551.178 616.103l-34.616 99.294v-1.822H240.541L393.582 832h210.432l89.274-276.021-98.384-71.054-43.726 131.178z" fill="#fff"/><path d="M586.706 454.863l127.534 92.918-86.541 266.91L780.74 703.555l64.678-200.411-234.117-169.439-95.65 69.233 71.055 51.925z" fill="#fff"/><path d="M839.041 475.815L780.74 296.356 610.391 173.377 378.096 341.904l36.438 112.959 196.767-143.932 227.74 164.884z" fill="#fff"/><path d="M407.247 484.014l-49.192-151.219L582.151 167H393.582L223.233 292.712l88.363 275.11h120.247l-24.596-83.808z" fill="#fff"/><path d="M456.438 586.041H298.842l-86.541-265.089L154 497.678l65.589 197.678h286.952l37.349-109.315h-87.452z" fill="#fff"/></svg>

<svg width="1000" height="1000" viewBox="0 0 1000 1000" fill="none" xmlns="http://www.w3.org/2000/svg">
<path d="M1000 0H0V1000H1000V0Z" fill="#1E0B36"/>
<path d="M551.178 616.103L516.562 715.397V713.575H240.541L393.582 832H604.014L693.288 555.979L594.904 484.925L551.178 616.103Z" fill="white"/>
<path d="M586.706 454.863L714.24 547.781L627.699 814.691L780.74 703.555L845.418 503.144L611.301 333.705L515.651 402.938L586.706 454.863Z" fill="white"/>
<path d="M839.041 475.815L780.74 296.356L610.391 173.377L378.096 341.904L414.534 454.863L611.301 310.931L839.041 475.815Z" fill="white"/>
<path d="M407.247 484.014L358.055 332.795L582.151 167H393.582L223.233 292.712L311.596 567.822H431.843L407.247 484.014Z" fill="white"/>
<path d="M456.438 586.041H298.842L212.301 320.952L154 497.678L219.589 695.356H506.541L543.89 586.041H456.438Z" fill="white"/>
</svg>
